X:150
T:Merry Girls of Maidstone. JJo8.150
B:J.Johnson Choice Collection Vol 8 1758
Z:vmp.Simon Wilson 2013 www.village-music-project.org.uk
M:6/8
L:1/8
Q:3/8=110
K:G
|:B2B BdB|A2ATA3|B2B BdB|G2GTG3|
B2B BdB|A2ATA2g|(f/g/a)c BAG|DEFG3:|
|:B2B B^c^d|efgTf3|geb gfe|B^c^de2g|
dgd BdB|cAcB2e|(d/c/B)g BcA|(G3G3):|
